src/Assets/Icons/General/PrimaryNavbarComponent/verifyIcon_selected.svg

<svg width="50" height="41" viewBox="0 0 50 41" fill="none" xmlns="http://www.w3.org/2000/svg">
<path d="M39.3477 14.1072C36.8153 5.93755 29.1615 0 20.1222 0C9.00645 0 0 8.96117 0 20.0152C0 31.0691 9.00645 40.0362 20.1222 40.0362H36.2403C43.5396 40.0362 49.4565 34.1491 49.4565 26.8865C49.4565 20.691 45.1484 15.4916 39.3477 14.1072ZM25.6995 26.5041C23.5514 28.5257 21.4421 30.5415 19.3774 32.5454C18.3227 31.914 11.5031 25.265 11.2558 24.6721C11.6193 24.1711 14.0951 21.5714 14.7923 21.0349C16.2611 22.5052 17.7328 23.9725 19.2016 25.4428C20.6913 24.0674 22.1929 22.6623 23.7004 21.2246C26.1434 18.8946 28.5001 16.5765 30.7733 14.2762C32.0305 15.6368 33.2848 16.9975 34.5421 18.3581C31.6164 20.9963 28.6699 23.7087 25.7025 26.5011L25.6995 26.5041Z" fill="#0000FF"/>
</svg>

<svg xmlns="http://www.w3.org/2000/svg" width="50" height="41" fill="none"><path fill="#00F" d="M39.348 14.107C36.815 5.937 29.162 0 20.122 0 9.006 0 0 8.961 0 20.015s9.006 20.021 20.122 20.021H36.24c7.3 0 13.216-5.887 13.216-13.15 0-6.195-4.308-11.394-10.108-12.779M25.7 26.504a569 569 0 0 0-6.323 6.041c-1.054-.631-7.874-7.28-8.121-7.873.363-.5 2.84-3.1 3.536-3.637l4.41 4.408q2.236-2.063 4.498-4.218 3.664-3.497 7.073-6.949c1.258 1.36 2.512 2.721 3.77 4.082a565 565 0 0 0-8.84 8.143z"/></svg>
